src/assets/icons/external-link.svg

<svg width="24" height="24" viewBox="0 0 24 24" fill="none" xmlns="http://www.w3.org/2000/svg">
<!-- Rounded rectangle -->
<path d="M11.5833 5.75H7.75C6.64543 5.75 5.75 6.64543 5.75 7.75V17.75C5.75 18.8546 6.64543 19.75 7.75 19.75H17.75C18.8546 19.75 19.75 18.8546 19.75 17.75V13.9167" stroke="#314158" stroke-width="1.5" stroke-linecap="round" stroke-linejoin="round"/>
<!-- Diagonal arrow line -->
<path d="M12.5 12.5L18.25 6.75" stroke="#314158" stroke-width="1.5" stroke-linecap="round"/>
<!-- Arrow head horizontal -->
<path d="M14.625 5.75H18.25" stroke="#314158" stroke-width="1.5" stroke-linecap="round"/>
<!-- Arrow head vertical -->
<path d="M18.25 5.75V9.375" stroke="#314158" stroke-width="1.5" stroke-linecap="round"/>
</svg>

<svg fill="none" viewBox="0 0 24 24"><path stroke="currentColor" stroke-linecap="round" stroke-linejoin="round" stroke-width="1.5" d="M11.583 5.75H7.75a2 2 0 0 0-2 2v10a2 2 0 0 0 2 2h10a2 2 0 0 0 2-2v-3.833"/><path stroke="currentColor" stroke-linecap="round" stroke-width="1.5" d="m12.5 12.5 5.75-5.75M14.625 5.75h3.625M18.25 5.75v3.625"/></svg>
